SVG_Azure_Grouped/Deployment/Azure Repo.svg

<?xml version="1.0" encoding="UTF-8" standalone="no"?>
<!-- Generated by Microsoft Visio, SVG Export Azure Repo.svg Page-1 -->

<svg
   xmlns:dc="http://purl.org/dc/elements/1.1/"
   xmlns:cc="http://creativecommons.org/ns#"
   xmlns:rdf="http://www.w3.org/1999/02/22-rdf-syntax-ns#"
   xmlns:svg="http://www.w3.org/2000/svg"
   xmlns="http://www.w3.org/2000/svg"
   xmlns:sodipodi="http://sodipodi.sourceforge.net/DTD/sodipodi-0.dtd"
   xmlns:inkscape="http://www.inkscape.org/namespaces/inkscape"
   width="0.66930389in"
   height="0.78737718in"
   viewBox="0 0 48.18988 56.691298"
   xml:space="preserve"
   class="st6"
   version="1.1"
   id="svg41"
   sodipodi:docname="Azure Repo.svg"
   style="font-size:12px;overflow:visible;color-interpolation-filters:sRGB;fill:none;fill-rule:evenodd;stroke-linecap:square;stroke-miterlimit:3"
   inkscape:version="0.92.5 (2060ec1f9f, 2020-04-08)"><metadata
   id="metadata47"><rdf:RDF><cc:Work
       rdf:about=""><dc:format>image/svg+xml</dc:format><dc:type
         rdf:resource="http://purl.org/dc/dcmitype/StillImage" /></cc:Work></rdf:RDF></metadata><defs
   id="defs45" /><sodipodi:namedview
   pagecolor="#ffffff"
   bordercolor="#666666"
   borderopacity="1"
   objecttolerance="10"
   gridtolerance="10"
   guidetolerance="10"
   inkscape:pageopacity="0"
   inkscape:pageshadow="2"
   inkscape:window-width="640"
   inkscape:window-height="480"
   id="namedview43"
   showgrid="false"
   inkscape:zoom="1.8365233"
   inkscape:cx="32.125918"
   inkscape:cy="18.900351"
   inkscape:window-x="0"
   inkscape:window-y="0"
   inkscape:window-maximized="0"
   inkscape:current-layer="svg41" />
	<style
   type="text/css"
   id="style2">
	<![CDATA[
		.st1 {fill:#bc3200;stroke:none;stroke-linecap:butt;stroke-width:0.75}
		.st2 {fill:#d13600;stroke:none;stroke-linecap:butt;stroke-width:0.75}
		.st3 {fill:#e15815;stroke:none;stroke-linecap:butt;stroke-width:0.75}
		.st4 {fill:#ffb290;stroke:none;stroke-linecap:butt;stroke-width:0.75}
		.st5 {fill:#ffdbca;stroke:none;stroke-linecap:butt;stroke-width:0.75}
		.st6 {fill:none;fill-rule:evenodd;font-size:12px;overflow:visible;stroke-linecap:square;stroke-miterlimit:3}
	]]>
	</style>

	<g
   id="g39"
   transform="translate(-4.8189732,-5.673)">
		<title
   id="title4">Page-1</title>
		<g
   id="group17428-1"
   transform="translate(4.8189,-34.0157)">
			<title
   id="title6">Azure Repo.17428</title>
			<g
   id="shape17429-2"
   transform="translate(8.19059,-47.8913)">
				<title
   id="title8">path2</title>
				<path
   d="M 29.86,87.58 H 1.94 C 0.87,87.58 0,88.49 0,89.64 v 6.74 h 31.8 v -6.74 c 0,-1.15 -0.86,-2.06 -1.94,-2.06 z"
   class="st1"
   id="path10"
   inkscape:connector-curvature="0"
   style="fill:#bc3200;stroke:none;stroke-width:0.75;stroke-linecap:butt" />
			</g>
			<g
   id="shape17430-4"
   transform="translate(4.04054,-47.2561)">
				<title
   id="title13">path4</title>
				<path
   d="M 37.3,91.06 H 2.81 C 1.25,91.06 0,92.39 0,94.04 v 2.34 h 40.11 v -2.34 c 0,-1.65 -1.26,-2.98 -2.81,-2.98 z"
   class="st2"
   id="path15"
   inkscape:connector-curvature="0"
   style="fill:#d13600;stroke:none;stroke-width:0.75;stroke-linecap:butt" />
			</g>
			<g
   id="shape17431-6">
				<title
   id="title18">path6</title>
				<path
   d="M 45.38,48.03 H 2.81 C 1.25,48.03 0,49.36 0,51.01 v 42.38 c 0,1.65 1.27,2.99 2.82,2.99 h 42.55 c 1.55,0 2.82,-1.34 2.82,-2.99 V 51.01 c 0,-1.65 -1.26,-2.98 -2.81,-2.98 z"
   class="st3"
   id="path20"
   inkscape:connector-curvature="0"
   style="fill:#e15815;stroke:none;stroke-width:0.75;stroke-linecap:butt" />
			</g>
			<g
   id="shape17432-8"
   transform="translate(8.86905,-32.6424)">
				<title
   id="title23">path8</title>
				<path
   d="M 5.35,85.03 C 2.4,85.03 0,87.58 0,90.71 c 0,3.13 2.4,5.67 5.35,5.67 2.95,0 5.35,-2.54 5.35,-5.67 0,-3.13 -2.4,-5.68 -5.35,-5.68 z m 0,9.35 c -1.92,0 -3.47,-1.65 -3.47,-3.69 0,-2.03 1.55,-3.68 3.47,-3.68 1.92,0 3.48,1.65 3.48,3.68 0,2.04 -1.56,3.69 -3.48,3.69 z"
   class="st4"
   id="path25"
   inkscape:connector-curvature="0"
   style="fill:#ffb290;stroke:none;stroke-width:0.75;stroke-linecap:butt" />
			</g>
			<g
   id="shape17433-10"
   transform="translate(12.2661,-21.7566)">
				<title
   id="title28">path10</title>
				<path
   d="M 3.96,84.88 H 0 v 11.5 h 3.96 z"
   class="st4"
   id="path30"
   inkscape:connector-curvature="0"
   style="fill:#ffb290;stroke:none;stroke-width:0.75;stroke-linecap:butt" />
			</g>
			<g
   id="shape17434-12"
   transform="translate(8.88216,-3.85961)">
				<title
   id="title33">path12</title>
				<path
   d="m 30.75,62.01 c 0,-3.13 -2.4,-5.67 -5.35,-5.67 -2.95,0 -5.35,2.54 -5.35,5.67 0,2.41 1.42,4.47 3.43,5.29 v 3.9 L 3.39,78.23 H 3.35 v 7.22 C 1.39,86.28 0,88.33 0,90.71 c 0,3.13 2.4,5.67 5.35,5.67 2.95,0 5.35,-2.54 5.35,-5.67 0,-2.36 -1.35,-4.38 -3.27,-5.24 V 81 l 19.98,-7 -0.05,-0.08 h 0.05 v -6.66 c 1.95,-0.84 3.34,-2.88 3.34,-5.25 z M 8.81,90.72 c 0,2.03 -1.55,3.68 -3.47,3.68 -1.92,0 -3.47,-1.65 -3.47,-3.68 0,-2.04 1.55,-3.68 3.47,-3.68 1.92,0 3.47,1.64 3.47,3.68 z M 25.4,65.68 c -1.92,0 -3.48,-1.65 -3.48,-3.68 0,-2.04 1.56,-3.69 3.48,-3.69 1.92,0 3.47,1.65 3.47,3.69 0,2.03 -1.56,3.68 -3.47,3.68 z"
   class="st5"
   id="path35"
   inkscape:connector-curvature="0"
   style="fill:#ffdbca;stroke:none;stroke-width:0.75;stroke-linecap:butt" />
			</g>
		</g>
	</g>
</svg>

<?xml version="1.0" encoding="UTF-8" standalone="no"?>
<!DOCTYPE svg PUBLIC "-//W3C//DTD SVG 1.1//EN" "http://www.w3.org/Graphics/SVG/1.1/DTD/svg11.dtd">
<!-- Generated by Microsoft Visio, SVG Export Azure Repo.svg Page-1 -->
<svg xmlns="http://www.w3.org/2000/svg" xmlns:xlink="http://www.w3.org/1999/xlink" xmlns:ev="http://www.w3.org/2001/xml-events"
		width="0.80315in" height="1.33858in" viewBox="0 0 57.8268 96.378" xml:space="preserve" color-interpolation-filters="sRGB"
		class="st6">
	<style type="text/css">
	<![CDATA[
		.st1 {fill:#bc3200;stroke:none;stroke-linecap:butt;stroke-width:0.75}
		.st2 {fill:#d13600;stroke:none;stroke-linecap:butt;stroke-width:0.75}
		.st3 {fill:#e15815;stroke:none;stroke-linecap:butt;stroke-width:0.75}
		.st4 {fill:#ffb290;stroke:none;stroke-linecap:butt;stroke-width:0.75}
		.st5 {fill:#ffdbca;stroke:none;stroke-linecap:butt;stroke-width:0.75}
		.st6 {fill:none;fill-rule:evenodd;font-size:12px;overflow:visible;stroke-linecap:square;stroke-miterlimit:3}
	]]>
	</style>

	<g>
		<title>Page-1</title>
		<g id="group17031-1" transform="translate(4.8189,-34.0157)">
			<title>Azure Repo.17031</title>
			<g id="shape17032-2" transform="translate(8.19059,-47.8913)">
				<title>path2</title>
				<path d="M29.86 87.58 L1.94 87.58 C0.87 87.58 0 88.49 0 89.64 L0 96.38 L31.8 96.38 L31.8 89.64 C31.8 88.49 30.94
							 87.58 29.86 87.58 Z" class="st1"/>
			</g>
			<g id="shape17033-4" transform="translate(4.04054,-47.2561)">
				<title>path4</title>
				<path d="M37.3 91.06 L2.81 91.06 C1.25 91.06 0 92.39 0 94.04 L0 96.38 L40.11 96.38 L40.11 94.04 C40.11 92.39 38.85
							 91.06 37.3 91.06 Z" class="st2"/>
			</g>
			<g id="shape17034-6">
				<title>path6</title>
				<path d="M45.38 48.03 L2.81 48.03 C1.25 48.03 0 49.36 0 51.01 L0 93.39 C0 95.04 1.27 96.38 2.82 96.38 L45.37 96.38
							 C46.92 96.38 48.19 95.04 48.19 93.39 L48.19 51.01 C48.19 49.36 46.93 48.03 45.38 48.03 Z" class="st3"/>
			</g>
			<g id="shape17035-8" transform="translate(8.86905,-32.6424)">
				<title>path8</title>
				<path d="M5.35 85.03 C2.4 85.03 0 87.58 0 90.71 C0 93.84 2.4 96.38 5.35 96.38 C8.3 96.38 10.7 93.84 10.7 90.71 C10.7
							 87.58 8.3 85.03 5.35 85.03 ZM5.35 94.38 C3.43 94.38 1.88 92.73 1.88 90.69 C1.88 88.66 3.43 87.01 5.35
							 87.01 C7.27 87.01 8.83 88.66 8.83 90.69 C8.83 92.73 7.27 94.38 5.35 94.38 Z" class="st4"/>
			</g>
			<g id="shape17036-10" transform="translate(12.2661,-21.7566)">
				<title>path10</title>
				<path d="M3.96 84.88 L0 84.88 L0 96.38 L3.96 96.38 L3.96 84.88 Z" class="st4"/>
			</g>
			<g id="shape17037-12" transform="translate(8.88216,-3.85961)">
				<title>path12</title>
				<path d="M30.75 62.01 C30.75 58.88 28.35 56.34 25.4 56.34 C22.45 56.34 20.05 58.88 20.05 62.01 C20.05 64.42 21.47
							 66.48 23.48 67.3 L23.48 71.2 L3.39 78.23 L3.35 78.23 L3.35 85.45 C1.39 86.28 0 88.33 0 90.71 C0 93.84
							 2.4 96.38 5.35 96.38 C8.3 96.38 10.7 93.84 10.7 90.71 C10.7 88.35 9.35 86.33 7.43 85.47 L7.43 81 L27.41
							 74 L27.36 73.92 L27.41 73.92 L27.41 67.26 C29.36 66.42 30.75 64.38 30.75 62.01 ZM8.81 90.72 C8.81 92.75
							 7.26 94.4 5.34 94.4 C3.42 94.4 1.87 92.75 1.87 90.72 C1.87 88.68 3.42 87.04 5.34 87.04 C7.26 87.04 8.81
							 88.68 8.81 90.72 ZM25.4 65.68 C23.48 65.68 21.92 64.03 21.92 62 C21.92 59.96 23.48 58.31 25.4 58.31
							 C27.32 58.31 28.87 59.96 28.87 62 C28.87 64.03 27.31 65.68 25.4 65.68 Z" class="st5"/>
			</g>
		</g>
	</g>
</svg>
